X:1
T:Balmoral Castle [3]
T:Balmoral Castle [3]
T:Alexander Walker
C:Alexander Walker
L:1/8
M:2/2
K:F#min
V:1 treble 
V:1
 C | F2 (AG) FECF | ECA,B, EFGE | F2 AG FGAc | BGEG F/F/FF :| e | fcfg a2 gf | eBef gfeg | %8
 fcfg a2 gf | ecBG F/F/F Fe | fcfg a2 gf | eBef gfeg | fagf ecBG | AcBG F/F/FF || %14

